Newaita-dark/.places-mint/32/folder-photos.svg

<?xml version="1.0" encoding="UTF-8"?>
<svg xmlns="http://www.w3.org/2000/svg" xmlns:xlink="http://www.w3.org/1999/xlink" width="32px" height="32px" viewBox="0 0 32 32" version="1.1">
<defs>
<linearGradient id="linear0" gradientUnits="userSpaceOnUse" x1="254" y1="233.5" x2="254" y2="254.666672" gradientTransform="matrix(0.062506,0,0,0.062506,-0.00000381506,13.438787)">
<stop offset="0" style="stop-color:rgb(0%,0%,0%);stop-opacity:0.27451;"/>
<stop offset="1" style="stop-color:rgb(0%,0%,0%);stop-opacity:0;"/>
</linearGradient>
<radialGradient id="radial0" gradientUnits="userSpaceOnUse" cx="450.908936" cy="189.579361" fx="450.908936" fy="189.579361" r="21.166656" gradientTransform="matrix(0.00000017417,-0.0781325,-0.140638,-0.000000101539,54.115213,63.595334)">
<stop offset="0" style="stop-color:rgb(0%,0%,0%);stop-opacity:0.313726;"/>
<stop offset="0.222222" style="stop-color:rgb(0%,0%,0%);stop-opacity:0.27451;"/>
<stop offset="1" style="stop-color:rgb(0%,0%,0%);stop-opacity:0;"/>
</radialGradient>
<radialGradient id="radial1" gradientUnits="userSpaceOnUse" cx="450.908936" cy="189.579361" fx="450.908936" fy="189.579361" r="21.166656" gradientTransform="matrix(-0.00000017417,0.0781325,0.140638,0.000000101539,-22.362178,-7.527477)">
<stop offset="0" style="stop-color:rgb(0%,0%,0%);stop-opacity:0.313726;"/>
<stop offset="0.222222" style="stop-color:rgb(0%,0%,0%);stop-opacity:0.27451;"/>
<stop offset="1" style="stop-color:rgb(0%,0%,0%);stop-opacity:0;"/>
</radialGradient>
<radialGradient id="radial2" gradientUnits="userSpaceOnUse" cx="450.908936" cy="189.579361" fx="450.908936" fy="189.579361" r="21.166656" gradientTransform="matrix(-0.00000017417,-0.0781325,0.140638,-0.000000101539,-22.362178,63.595334)">
<stop offset="0" style="stop-color:rgb(0%,0%,0%);stop-opacity:0.313726;"/>
<stop offset="0.222222" style="stop-color:rgb(0%,0%,0%);stop-opacity:0.27451;"/>
<stop offset="1" style="stop-color:rgb(0%,0%,0%);stop-opacity:0;"/>
</radialGradient>
<radialGradient id="radial3" gradientUnits="userSpaceOnUse" cx="450.908936" cy="189.579361" fx="450.908936" fy="189.579361" r="21.166656" gradientTransform="matrix(0.00000017417,0.0781325,-0.140638,0.000000101539,54.115211,-7.527477)">
<stop offset="0" style="stop-color:rgb(0%,0%,0%);stop-opacity:0.313726;"/>
<stop offset="0.222222" style="stop-color:rgb(0%,0%,0%);stop-opacity:0.27451;"/>
<stop offset="1" style="stop-color:rgb(0%,0%,0%);stop-opacity:0;"/>
</radialGradient>
<linearGradient id="linear1" gradientUnits="userSpaceOnUse" x1="254" y1="-147.5" x2="254" y2="-31.083334" gradientTransform="matrix(0.062506,0,0,0.062506,0.00000124975,13.438781)">
<stop offset="0" style="stop-color:rgb(64.313728%,64.313728%,64.313728%);stop-opacity:0;"/>
<stop offset="1" style="stop-color:rgb(100%,100%,100%);stop-opacity:0.196078;"/>
</linearGradient>
<linearGradient id="linear2" gradientUnits="userSpaceOnUse" x1="254" y1="233.5" x2="254" y2="-105.166656" gradientTransform="matrix(0.062506,0,0,0.062506,-0.00000181239,13.438783)">
<stop offset="0" style="stop-color:rgb(34.509805%,34.509805%,34.509805%);stop-opacity:0;"/>
<stop offset="1" style="stop-color:rgb(98.039216%,98.039216%,98.039216%);stop-opacity:0.196078;"/>
</linearGradient>
</defs>
<g id="surface1">
<path style=" stroke:none;fill-rule:nonzero;fill:url(#linear0);" d="M 3.96875 28.035156 L 27.785156 28.035156 L 27.785156 29.355469 L 3.96875 29.355469 Z M 3.96875 28.035156 "/>
<path style=" stroke:none;fill-rule:nonzero;fill:url(#radial0);" d="M 27.785156 28.035156 L 30.429688 28.035156 L 30.429688 26.710938 L 27.785156 26.710938 Z M 27.785156 28.035156 "/>
<path style=" stroke:none;fill-rule:nonzero;fill:url(#radial1);" d="M 3.96875 28.035156 L 1.324219 28.035156 L 1.324219 29.355469 L 3.96875 29.355469 Z M 3.96875 28.035156 "/>
<path style=" stroke:none;fill-rule:nonzero;fill:url(#radial2);" d="M 3.96875 28.035156 L 1.324219 28.035156 L 1.324219 26.710938 L 3.96875 26.710938 Z M 3.96875 28.035156 "/>
<path style=" stroke:none;fill-rule:nonzero;fill:url(#radial3);" d="M 27.785156 28.035156 L 30.429688 28.035156 L 30.429688 29.355469 L 27.785156 29.355469 Z M 27.785156 28.035156 "/>
<path style=" stroke:none;fill-rule:nonzero;fill:rgb(61.176473%,80.000001%,39.607844%);fill-opacity:1;" d="M 7.277344 4.21875 L 28.777344 4.21875 C 29.507812 4.21875 30.097656 4.8125 30.097656 5.542969 L 30.097656 10.503906 C 30.097656 11.234375 29.507812 11.828125 28.777344 11.828125 L 7.277344 11.828125 C 6.546875 11.828125 5.953125 11.234375 5.953125 10.503906 L 5.953125 5.542969 C 5.953125 4.8125 6.546875 4.21875 7.277344 4.21875 Z M 7.277344 4.21875 "/>
<path style=" stroke:none;fill-rule:nonzero;fill:url(#linear1);" d="M 7.277344 4.21875 L 28.777344 4.21875 C 29.507812 4.21875 30.097656 4.8125 30.097656 5.542969 L 30.097656 10.503906 C 30.097656 11.234375 29.507812 11.828125 28.777344 11.828125 L 7.277344 11.828125 C 6.546875 11.828125 5.953125 11.234375 5.953125 10.503906 L 5.953125 5.542969 C 5.953125 4.8125 6.546875 4.21875 7.277344 4.21875 Z M 7.277344 4.21875 "/>
<path style=" stroke:none;fill-rule:nonzero;fill:rgb(100%,100%,100%);fill-opacity:0.392157;" d="M 7.277344 4.300781 C 6.542969 4.300781 5.953125 4.890625 5.953125 5.625 L 5.953125 5.789062 C 5.953125 5.058594 6.542969 4.46875 7.277344 4.46875 L 28.777344 4.46875 C 29.507812 4.46875 30.097656 5.058594 30.097656 5.789062 L 30.097656 5.625 C 30.097656 4.890625 29.507812 4.300781 28.777344 4.300781 Z M 7.277344 4.300781 "/>
<path style=" stroke:none;fill-rule:nonzero;fill:rgb(12.941177%,12.941177%,12.941177%);fill-opacity:1;" d="M 7.277344 4.125 C 6.492188 4.125 5.859375 4.757812 5.859375 5.542969 L 5.859375 10.503906 C 5.859375 11.285156 6.492188 11.921875 7.277344 11.921875 L 28.777344 11.921875 C 29.558594 11.921875 30.191406 11.285156 30.191406 10.503906 L 30.191406 5.542969 C 30.191406 4.757812 29.558594 4.125 28.777344 4.125 Z M 7.277344 4.3125 L 28.777344 4.3125 C 29.457031 4.3125 30.003906 4.859375 30.003906 5.542969 L 30.003906 10.503906 C 30.003906 11.1875 29.457031 11.734375 28.777344 11.734375 L 7.277344 11.734375 C 6.59375 11.734375 6.046875 11.1875 6.046875 10.503906 L 6.046875 5.542969 C 6.046875 4.859375 6.59375 4.3125 7.277344 4.3125 Z M 7.277344 4.3125 "/>
<path style=" stroke:none;fill-rule:nonzero;fill:rgb(68.235296%,83.529413%,50.588238%);fill-opacity:1;" d="M 2.644531 6.863281 C 1.914062 6.863281 1.324219 7.457031 1.324219 8.1875 L 1.324219 26.710938 C 1.324219 27.445312 1.914062 28.035156 2.644531 28.035156 L 29.105469 28.035156 C 29.839844 28.035156 30.429688 27.445312 30.429688 26.710938 L 30.429688 10.171875 L 12.570312 10.171875 C 11.835938 10.171875 11.246094 9.582031 11.246094 8.851562 L 11.246094 6.863281 Z M 2.644531 6.863281 "/>
<path style=" stroke:none;fill-rule:nonzero;fill:url(#linear2);" d="M 2.644531 6.863281 C 1.914062 6.863281 1.324219 7.457031 1.324219 8.1875 L 1.324219 26.710938 C 1.324219 27.445312 1.914062 28.035156 2.644531 28.035156 L 29.105469 28.035156 C 29.839844 28.035156 30.429688 27.445312 30.429688 26.710938 L 30.429688 10.171875 L 12.570312 10.171875 C 11.835938 10.171875 11.246094 9.582031 11.246094 8.851562 L 11.246094 6.863281 Z M 2.644531 6.863281 "/>
<path style=" stroke:none;fill-rule:nonzero;fill:rgb(0%,0%,0%);fill-opacity:0.196078;" d="M 2.644531 28.035156 C 1.914062 28.035156 1.324219 27.445312 1.324219 26.710938 L 1.324219 26.546875 C 1.324219 27.277344 1.914062 27.867188 2.644531 27.867188 L 29.105469 27.867188 C 29.839844 27.867188 30.429688 27.277344 30.429688 26.546875 L 30.429688 26.710938 C 30.429688 27.445312 29.839844 28.035156 29.105469 28.035156 Z M 2.644531 28.035156 "/>
<path style=" stroke:none;fill-rule:nonzero;fill:rgb(100%,100%,100%);fill-opacity:0.392157;" d="M 2.644531 6.949219 C 1.914062 6.949219 1.324219 7.539062 1.324219 8.269531 L 1.324219 8.4375 C 1.324219 7.703125 1.914062 7.113281 2.644531 7.113281 L 11.246094 7.113281 L 11.246094 6.949219 Z M 2.644531 6.949219 "/>
<path style=" stroke:none;fill-rule:nonzero;fill:rgb(100%,100%,100%);fill-opacity:0.392157;" d="M 12.484375 10.339844 C 11.753906 10.339844 11.164062 9.75 11.164062 9.015625 L 11.164062 8.851562 C 11.164062 9.582031 11.753906 10.175781 12.484375 10.171875 L 30.429688 10.171875 L 30.429688 10.339844 Z M 12.484375 10.339844 "/>
<path style=" stroke:none;fill-rule:nonzero;fill:rgb(12.941177%,12.941177%,12.941177%);fill-opacity:1;" d="M 2.644531 6.769531 C 1.863281 6.769531 1.230469 7.40625 1.230469 8.1875 L 1.230469 26.710938 C 1.230469 27.496094 1.863281 28.128906 2.644531 28.128906 L 29.105469 28.128906 C 29.890625 28.128906 30.523438 27.496094 30.523438 26.710938 L 30.523438 9.984375 L 12.570312 9.984375 C 11.886719 9.984375 11.339844 9.4375 11.339844 8.757812 L 11.339844 6.769531 Z M 2.644531 6.960938 L 11.152344 6.960938 L 11.152344 8.757812 C 11.152344 9.539062 11.785156 10.171875 12.570312 10.171875 L 30.335938 10.171875 L 30.335938 26.710938 C 30.335938 27.394531 29.789062 27.941406 29.105469 27.941406 L 2.644531 27.941406 C 1.964844 27.941406 1.417969 27.394531 1.417969 26.710938 L 1.417969 8.1875 C 1.417969 7.503906 1.964844 6.960938 2.644531 6.960938 Z M 2.644531 6.960938 "/>
<path style=" stroke:none;fill-rule:nonzero;fill:rgb(54.509807%,76.47059%,29.019609%);fill-opacity:1;" d="M 15.214844 12.820312 C 14.480469 12.820312 13.890625 13.410156 13.890625 14.140625 L 11.90625 14.140625 C 11.175781 14.140625 10.585938 14.730469 10.585938 15.464844 L 10.585938 21.417969 C 10.585938 22.152344 11.175781 22.742188 11.90625 22.742188 L 19.84375 22.742188 C 20.578125 22.742188 21.167969 22.152344 21.167969 21.417969 L 21.167969 15.464844 C 21.167969 14.730469 20.578125 14.140625 19.84375 14.140625 L 17.859375 14.140625 C 17.859375 13.410156 17.269531 12.820312 16.539062 12.820312 Z M 15.875 15.796875 C 17.34375 15.796875 18.523438 16.976562 18.523438 18.441406 C 18.523438 19.90625 17.34375 21.089844 15.875 21.089844 C 14.410156 21.089844 13.230469 19.90625 13.230469 18.441406 C 13.230469 16.976562 14.410156 15.796875 15.875 15.796875 Z M 15.875 15.796875 "/>
<path style=" stroke:none;fill-rule:nonzero;fill:rgb(100%,100%,100%);fill-opacity:0.392157;" d="M 15.875 15.796875 C 14.410156 15.796875 13.230469 16.976562 13.230469 18.441406 C 13.230469 18.484375 13.230469 18.523438 13.234375 18.566406 C 13.296875 17.15625 14.453125 16.042969 15.875 16.042969 C 17.300781 16.042969 18.457031 17.15625 18.519531 18.566406 C 18.523438 18.523438 18.523438 18.484375 18.523438 18.441406 C 18.523438 16.976562 17.34375 15.796875 15.875 15.796875 Z M 10.585938 21.417969 L 10.585938 21.667969 C 10.585938 22.398438 11.175781 22.988281 11.90625 22.988281 L 19.84375 22.988281 C 20.578125 22.988281 21.167969 22.398438 21.167969 21.667969 L 21.167969 21.417969 C 21.167969 22.152344 20.578125 22.742188 19.84375 22.742188 L 11.90625 22.742188 C 11.175781 22.742188 10.585938 22.152344 10.585938 21.417969 Z M 10.585938 21.417969 "/>
<path style=" stroke:none;fill-rule:nonzero;fill:rgb(0%,0%,0%);fill-opacity:0.235294;" d="M 15.214844 12.820312 C 14.480469 12.820312 13.890625 13.410156 13.890625 14.140625 L 11.90625 14.140625 C 11.175781 14.140625 10.585938 14.730469 10.585938 15.464844 L 10.585938 15.730469 C 10.585938 15 11.175781 14.410156 11.90625 14.410156 L 13.890625 14.410156 C 13.890625 13.675781 14.480469 13.085938 15.214844 13.085938 L 16.539062 13.085938 C 17.269531 13.085938 17.859375 13.675781 17.859375 14.410156 L 19.84375 14.410156 C 20.578125 14.410156 21.167969 15 21.167969 15.730469 L 21.167969 15.464844 C 21.167969 14.730469 20.578125 14.140625 19.84375 14.140625 L 17.859375 14.140625 C 17.859375 13.410156 17.269531 12.820312 16.539062 12.820312 Z M 13.242188 18.691406 C 13.234375 18.773438 13.230469 18.855469 13.230469 18.9375 C 13.230469 18.984375 13.230469 19.027344 13.234375 19.074219 C 13.234375 19.035156 13.238281 18.996094 13.242188 18.957031 C 13.367188 20.304688 14.496094 21.355469 15.875 21.355469 C 17.257812 21.355469 18.386719 20.304688 18.511719 18.957031 C 18.515625 18.996094 18.515625 19.035156 18.519531 19.074219 C 18.519531 19.027344 18.523438 18.984375 18.523438 18.9375 C 18.523438 18.855469 18.519531 18.773438 18.511719 18.691406 C 18.386719 20.039062 17.257812 21.089844 15.875 21.089844 C 14.496094 21.089844 13.367188 20.039062 13.242188 18.691406 Z M 13.242188 18.691406 "/>
<path style="fill:none;stroke-width:11.338583;stroke-linecap:round;stroke-linejoin:round;stroke:rgb(12.941177%,12.941177%,12.941177%);stroke-opacity:1;stroke-miterlimit:4;" d="M 919.990934 775.201603 C 875.585723 775.201603 839.919836 810.867491 839.919836 855.036503 L 719.931288 855.036503 C 675.762275 855.036503 640.096388 890.702391 640.096388 935.107601 L 640.096388 1295.073245 C 640.096388 1339.478456 675.762275 1375.144343 719.931288 1375.144343 L 1199.88548 1375.144343 C 1244.29069 1375.144343 1279.956578 1339.478456 1279.956578 1295.073245 L 1279.956578 935.107601 C 1279.956578 890.702391 1244.29069 855.036503 1199.88548 855.036503 L 1079.896932 855.036503 C 1079.896932 810.867491 1044.231044 775.201603 1000.062032 775.201603 Z M 959.908384 955.184425 C 1048.718805 955.184425 1120.05058 1026.5162 1120.05058 1115.090423 C 1120.05058 1203.664647 1048.718805 1275.232619 959.908384 1275.232619 C 871.33416 1275.232619 800.002386 1203.664647 800.002386 1115.090423 C 800.002386 1026.5162 871.33416 955.184425 959.908384 955.184425 Z M 959.908384 955.184425 " transform="matrix(0.016538,0,0,0.016538,0,0)"/>
</g>
</svg>

<svg xmlns="http://www.w3.org/2000/svg" width="32" height="32"><defs><linearGradient id="a" gradientUnits="userSpaceOnUse" x1="254" y1="233.5" x2="254" y2="254.667" gradientTransform="matrix(.0625 0 0 .0625 0 13.439)"><stop offset="0" stop-opacity=".275"/><stop offset="1" stop-opacity="0"/></linearGradient><radialGradient id="b" gradientUnits="userSpaceOnUse" cx="450.909" cy="189.579" fx="450.909" fy="189.579" r="21.167" gradientTransform="matrix(0 -.07813 -.14064 0 54.115 63.595)"><stop offset="0" stop-opacity=".314"/><stop offset=".222" stop-opacity=".275"/><stop offset="1" stop-opacity="0"/></radialGradient><radialGradient id="c" gradientUnits="userSpaceOnUse" cx="450.909" cy="189.579" fx="450.909" fy="189.579" r="21.167" gradientTransform="matrix(0 .07813 .14064 0 -22.362 -7.527)"><stop offset="0" stop-opacity=".314"/><stop offset=".222" stop-opacity=".275"/><stop offset="1" stop-opacity="0"/></radialGradient><radialGradient id="d" gradientUnits="userSpaceOnUse" cx="450.909" cy="189.579" fx="450.909" fy="189.579" r="21.167" gradientTransform="matrix(0 -.07813 .14064 0 -22.362 63.595)"><stop offset="0" stop-opacity=".314"/><stop offset=".222" stop-opacity=".275"/><stop offset="1" stop-opacity="0"/></radialGradient><radialGradient id="e" gradientUnits="userSpaceOnUse" cx="450.909" cy="189.579" fx="450.909" fy="189.579" r="21.167" gradientTransform="matrix(0 .07813 -.14064 0 54.115 -7.527)"><stop offset="0" stop-opacity=".314"/><stop offset=".222" stop-opacity=".275"/><stop offset="1" stop-opacity="0"/></radialGradient><linearGradient id="f" gradientUnits="userSpaceOnUse" x1="254" y1="-147.5" x2="254" y2="-31.083" gradientTransform="matrix(.0625 0 0 .0625 0 13.439)"><stop offset="0" stop-color="#a4a4a4" stop-opacity="0"/><stop offset="1" stop-color="#fff" stop-opacity=".196"/></linearGradient><linearGradient id="g" gradientUnits="userSpaceOnUse" x1="254" y1="233.5" x2="254" y2="-105.167" gradientTransform="matrix(.0625 0 0 .0625 0 13.439)"><stop offset="0" stop-color="#585858" stop-opacity="0"/><stop offset="1" stop-color="#fafafa" stop-opacity=".196"/></linearGradient><linearGradient id="h" gradientUnits="userSpaceOnUse" x1="254" y1="-147.5" x2="254" y2="233.5" gradientTransform="matrix(.0625 0 0 .0625 0 13.439)"><stop offset="0" stop-color="#a4a4a4" stop-opacity="0"/><stop offset="1" stop-color="#fff" stop-opacity=".196"/></linearGradient></defs><path d="M3.969 28.035h23.816v1.32H3.97zm0 0" fill="url(#a)"/><path d="M27.785 28.035h2.645v-1.324h-2.645zm0 0" fill="url(#b)"/><path d="M3.969 28.035H1.324v1.32H3.97zm0 0" fill="url(#c)"/><path d="M3.969 28.035H1.324v-1.324H3.97zm0 0" fill="url(#d)"/><path d="M27.785 28.035h2.645v1.32h-2.645zm0 0" fill="url(#e)"/><path d="M7.277 4.219h21.5c.73 0 1.32.593 1.32 1.324v4.96c0 .731-.59 1.325-1.32 1.325h-21.5c-.73 0-1.324-.594-1.324-1.324V5.543c0-.73.594-1.324 1.324-1.324zm0 0" fill="#7cb342"/><path d="M7.277 4.219h21.5c.73 0 1.32.593 1.32 1.324v4.96c0 .731-.59 1.325-1.32 1.325h-21.5c-.73 0-1.324-.594-1.324-1.324V5.543c0-.73.594-1.324 1.324-1.324zm0 0" fill="url(#f)"/><path d="M7.277 4.219a1.32 1.32 0 0 0-1.324 1.324v.164c0-.734.59-1.324 1.324-1.324h21.5c.73 0 1.32.59 1.32 1.324v-.164a1.32 1.32 0 0 0-1.32-1.324zm0 0" fill="#e6e6e6" fill-opacity=".588"/><path d="M7.277 4.125c-.785 0-1.418.633-1.418 1.418v4.96c0 .782.633 1.419 1.418 1.419h21.5c.782 0 1.414-.637 1.414-1.418V5.543c0-.785-.632-1.418-1.414-1.418zm0 .188h21.5c.68 0 1.227.546 1.227 1.23v4.96c0 .684-.547 1.231-1.227 1.231h-21.5c-.683 0-1.23-.546-1.23-1.23V5.543c0-.684.547-1.23 1.23-1.23zm0 0" fill="#212121"/><path d="M2.645 6.863c-.73 0-1.32.594-1.32 1.324v18.524c0 .734.59 1.324 1.32 1.324h26.46a1.32 1.32 0 0 0 1.325-1.324V10.17H12.57a1.32 1.32 0 0 1-1.324-1.32V6.864zm0 0" fill="#9ccc65"/><path d="M2.645 6.863c-.73 0-1.32.594-1.32 1.324v18.524c0 .734.59 1.324 1.32 1.324h26.46a1.32 1.32 0 0 0 1.325-1.324V10.17H12.57a1.32 1.32 0 0 1-1.324-1.32V6.864zm0 0" fill="url(#g)"/><path d="M2.645 28.035c-.73 0-1.32-.59-1.32-1.324v-.164c0 .73.59 1.32 1.32 1.32h26.46a1.32 1.32 0 0 0 1.325-1.32v.164a1.32 1.32 0 0 1-1.325 1.324zm0 0" fill-opacity=".196"/><path d="M2.645 6.863c-.73 0-1.32.594-1.32 1.324v.168c0-.734.59-1.324 1.32-1.324h8.601v-.168zm0 0M12.484 10.254c-.73 0-1.32-.59-1.32-1.32v-.168c0 .734.59 1.324 1.32 1.324H30.43v.164zm0 0" fill="#e6e6e6" fill-opacity=".937"/><path d="M2.645 6.77c-.782 0-1.415.636-1.415 1.418V26.71c0 .785.633 1.418 1.415 1.418h26.46c.786 0 1.418-.633 1.418-1.418V9.984H12.57c-.683 0-1.23-.546-1.23-1.226V6.77zm0 .19h8.507v1.798c0 .781.633 1.414 1.418 1.414h17.766V26.71c0 .684-.547 1.23-1.23 1.23H2.644c-.68 0-1.227-.546-1.227-1.23V8.188c0-.684.547-1.227 1.227-1.227zm0 0" fill="#212121"/><path d="M14.566 13.48a.663.663 0 0 0-.664.66v.665h-2.644a.66.66 0 0 0-.664.66v5.953c0 .367.297.664.664.664h.66c0 .363.297.66.66.66h6.617a.66.66 0 0 0 .66-.66h.665c.363 0 .66-.297.66-.664v-5.953a.66.66 0 0 0-.66-.66H17.87v-.664a.66.66 0 0 0-.66-.66zm1.32 2.645a2.643 2.643 0 0 1 2.65 2.648 2.64 2.64 0 0 1-2.65 2.645 2.639 2.639 0 0 1-2.644-2.645 2.642 2.642 0 0 1 2.645-2.648zm0 0" fill="#7cb342"/><path d="M14.566 13.48a.663.663 0 0 0-.664.66v.665h-2.644a.66.66 0 0 0-.664.66v5.953c0 .367.297.664.664.664h.66c0 .363.297.66.66.66h6.617a.66.66 0 0 0 .66-.66h.665c.363 0 .66-.297.66-.664v-5.953a.66.66 0 0 0-.66-.66H17.87v-.664a.66.66 0 0 0-.66-.66zm1.32 2.645a2.643 2.643 0 0 1 2.65 2.648 2.64 2.64 0 0 1-2.65 2.645 2.639 2.639 0 0 1-2.644-2.645 2.642 2.642 0 0 1 2.645-2.648zm0 0" fill="url(#h)"/><path d="M14.566 13.387a.758.758 0 0 0-.757.754v.57h-2.551a.755.755 0 0 0-.758.754v5.953c0 .418.34.758.758.758h.586c.047.367.351.66.734.66h6.617a.746.746 0 0 0 .735-.66h.59c.414 0 .753-.34.753-.758v-5.953a.754.754 0 0 0-.753-.754h-2.555v-.57a.754.754 0 0 0-.754-.754zm0 .187h2.645c.316 0 .566.25.566.567v.757h2.743c.316 0 .566.25.566.567v5.953c0 .316-.25.57-.566.57h-.758v.094c0 .313-.25.566-.567.566h-6.617a.567.567 0 0 1-.566-.566v-.094h-.754a.568.568 0 0 1-.57-.57v-5.953c0-.317.253-.567.57-.567h2.738v-.757c0-.317.254-.567.57-.567zm1.32 2.457a2.737 2.737 0 0 0-2.738 2.742 2.734 2.734 0 0 0 2.739 2.739 2.74 2.74 0 0 0 0-5.48zm0 .188a2.546 2.546 0 0 1 2.555 2.554 2.545 2.545 0 0 1-2.554 2.551 2.544 2.544 0 0 1-2.551-2.55 2.545 2.545 0 0 1 2.55-2.555zm0 0" fill="#212121"/></svg>
